!!!SOCIAL_FUNCTION:	klokali songs
!!!PDT:	1939
!!!OTL: No_53_Song_With_Impersonation_of_a_Little_Fish.krn
!!!LANG: Non-Tone
!!!LING_GROUP: Wakashan
!!!REG: Pacific Northwest
**kern
*staff1
=1-
*clefF4
*k[]
*M2/4
8.d\L
16e\Jk
8.e\L
16e\Jk
=2
8.e\L
16d\Jk
8d\
16r
16e\
=3
8.e\L
16d\Jk
8.d\L
16d\Jk
=4
8.d\L
16A\Jk
8A\L
16G\Jk
16r
=5
8.d\L
16e\Jk
8.e\L
16e\Jk
=6
8.e\L
16d\Jk
8d\
16r
16e\
=7
8.e\L
16d\Jk
8.d\L
16d\Jk
=8
8.d\L
16A\Jk
8A\L
16G\Jk
16r
=9
8d\L
8d\J
8d\
16r
16d\
=10
8d\L
8d\J
8d\
8r
==
*-
